svgs/thin/square-phone-flip.svg

<svg xmlns="http://www.w3.org/2000/svg" viewBox="0 0 448 512"><!--! Font Awesome Pro 6.3.0 by @fontawesome - https://fontawesome.com License - https://fontawesome.com/license (Commercial License) Copyright 2023 Fonticons, Inc. --><path d="M384 32H64C28.65 32 0 60.65 0 96v320c0 35.35 28.65 64 64 64h320c35.35 0 64-28.65 64-64V96C448 60.65 419.3 32 384 32zM432 416c0 26.47-21.53 48-48 48H64c-26.47 0-48-21.53-48-48V96c0-26.47 21.53-48 48-48h320c26.47 0 48 21.53 48 48V416zM341.7 132.2L291.3 120.6c-11-2.531-22.5 3.156-27.09 13.7l-23.31 54.31c-4.062 9.609-1.281 20.92 6.812 27.53l21.91 17.95c-15.38 28.5-39.06 52.17-67.59 67.58L184.2 279.8C177.6 271.6 166.2 268.8 156.5 273L102.3 296.3c-10.47 4.531-16.25 15.91-13.66 27.03l11.59 50.38C102.7 384.5 112.2 392 123.3 392C253.8 392 360 285.8 360 155.3C360 144.2 352.5 134.7 341.7 132.2zM123.3 376c-3.562 0-6.625-2.422-7.438-5.906l-11.62-50.39C103.4 316.1 105.2 312.5 108.6 310.1l54.25-23.27c3.125-1.375 6.812-.4375 8.906 2.203l26.06 31.83L203.5 318.1c36.09-17.73 65.72-47.36 83.41-83.42l2.781-5.688l-31.81-26.08c-2.625-2.125-3.531-5.781-2.219-8.859l23.28-54.23c1.469-3.422 5.188-5.391 8.781-4.469l50.41 11.62C341.6 148.6 344 151.7 344 155.3C344 276.1 244.1 376 123.3 376z"/></svg>

<svg xmlns="http://www.w3.org/2000/svg" viewBox="0 0 448 512"><!-- Font Awesome Pro 6.0.0-alpha2 by @fontawesome - https://fontawesome.com License - https://fontawesome.com/license (Commercial License) --><path d="M384 32H64C28.652 32 0 60.654 0 96V416C0 451.346 28.652 480 64 480H384C419.346 480 448 451.346 448 416V96C448 60.654 419.346 32 384 32ZM432 416C432 442.467 410.467 464 384 464H64C37.533 464 16 442.467 16 416V96C16 69.533 37.533 48 64 48H384C410.467 48 432 69.533 432 96V416ZM341.719 132.234L291.344 120.609C280.344 118.078 268.844 123.766 264.25 134.313L240.938 188.625C236.875 198.234 239.656 209.547 247.75 216.156L269.656 234.109C254.281 262.609 230.594 286.281 202.062 301.688L184.156 279.844C177.594 271.641 166.188 268.828 156.531 273.016L102.281 296.266L102.25 296.281C91.781 300.813 86.031 312.172 88.625 323.297L100.219 373.672C102.688 384.469 112.156 392 123.25 392C253.781 392 360 285.797 360 155.25C360 144.156 352.469 134.688 341.719 132.234ZM123.25 376C119.688 376 116.625 373.578 115.812 370.094L104.188 319.703C103.375 316.109 105.219 312.453 108.594 310.984L162.844 287.719C165.969 286.344 169.656 287.281 171.75 289.922L197.812 321.75L203.5 318.953C239.594 301.219 269.219 271.594 286.906 235.531L289.688 229.844L257.875 203.766C255.25 201.641 254.344 197.984 255.656 194.906L278.938 140.672C280.406 137.25 284.125 135.281 287.719 136.203L338.125 147.828C341.594 148.625 344 151.672 344 155.25C344 276.969 244.969 376 123.25 376Z"/></svg>
